X:2002
T:Up in the Air
P:Sir George Clark of Pennycuik
C:Nathaniel Gow
R:Strathspey (8x32)
B:RSCDS 20-2
Z:Anselm Lingnau <anselm@strathspey.org>
M:4/4
L:1/8
K:G
g/a/|"G"b<g g2 d<B B2|"C"c<e c<e "D"A3 B/c/|\
       "G"d<B B2 "Em"G<E E2|"Am"c>A "Em"B>G "D"G/F/E/D/ D g/a/|
     "G"b<g g2 d<B B2|"C"c<e c<e "D"A3 B/c/|\
       "G"d<B B2 "Em"e<E E>G|"D"G/F/E/D/ DE/F/ "G"G2 z||
d/c/|"G"B<d d2 d<b b>a|"C"g>e e>d "D"d3 d/c/|\
       "G"B<d d2 "Em"e>B "Am"[c2E2]|"D"[dF]>A "Em"[BE]>G "D"[G/D/]F/E/D/ DE/F/|
     "G"G<B B2 "Bm"B<d d2|"G"[gG]>d "C"[eG]>d "G"[d4G4D4]|\
       "G"[d'd]<b b<g "C"[gG]<e e<c|"G"B>G "D7"A>F "G"G2 z|]
